X:1
T:Hallelujah Chorus
T:from Messiah
T:George Frideric Handel HMV 56
T:Arr. and Transc. by Ethan Parks
%%score 1 2 3 4
L:1/8
Q:1/4=100
M:4/4
K:D
V:1 treble nm="Flute" snm="Fl."
V:2 treble nm="Flute" snm="Fl."
V:3 treble nm="Flute" snm="Fl."
V:4 treble nm="Flute" snm="Fl."
V:1
"^\n" d'3 a ba z2 | d'3 a ba z d'/d'/ | d'd' z d'/d'/ d'd' z d' | (c' d'2) c' d'2 z2 | %4
 e'3 a f'e' z2 | e'3 a f'e' z e'/e'/ | f'e' z e'/e'/ f'e' z e' | f'e' d'2 c'2 z2 | a4 b2 c'2 | %9
 d'd d'3 d' c'2 | b4 a2 z e'/e'/ | d'c' z e'/e'/ d'c' z e'/e'/ | f'e' z e'/e'/ f'e' z2 | z8 | z8 | %15
 z4 z2 z d'/d'/ | d'd' z d'/d'/ d'd' z d'/d'/ | d'd' z d'/d'/ d'd' z2 | d'4 e'2 f'2 | %19
 g'g g'3 g' f'2 | e'4 d'2 x d'/d'/ | c'a z c'/c'/ d'd'/d'/ e'e' | a2 z d'/c'/ bb z e' | %23
 d'c' d'e'/d'/ c'c'/c'/ e'c' | z a/a/ d'a z c'/c'/ e'c' | z a/a/ f'd' z c'/c'/ d'a | %26
 z b/b/ e'e' z c'/c'/ d'd'/d'/ | d'2 c'2 d'2 d'2 | d'2 d'2 d'4 | z4 z2!p! a2 | a2 g2 f2 e>d | d8 | %32
 z4 f2!<(! e>d | d6!<)! f'2 | e'2 d'2 d'2 c'2 | d'3 c' d'2 d'2 | c'3 a b2 c'2 | d'4 z4 | z8 | z8 | %40
 z8 | z8 | z8 | z8 | z4 z2 d'2 | a'2 c'2 f'2 a2 | d'2 c'b c'2 b>a | a4 a2 a2 | a8- | a8 | %50
 z2 a2 a2 a2 | a8- | a8 | z4 d'2 d'2 | d'8- | d'8- | d'2 d'2 e'2 e'2 | e'8- | e'8- | e'4 f'2 f'2 | %60
 f'8- | f'8- | f'3 f' g'2 g'2 | !tenuto!g'8- | g'3 g' f'e' f'g' | e'4 z c'd'e' | a2 z2 z4"^ff" | %67
 z4 z2 a2 | d'2 f2 b2 d2 | g2 fe f2 e>d | d4 z4 | z2 z d' g'f' z d' | g'f' z2 z4 | %73
 z2 z d'/d'/ g'f' z d'/d'/ | g'f' z a a2 d'2 | f'2 d'2 d'2 aa | c'2 d'd' d'2 c'2 | d'2 z2 a2 a2 | %78
 d'2 z a a2 a2 | d'2 z2 a2 a2 | d'2 z a a2 a2 | d'2 z2 z2 a2 | d'2 f'2 b2 d'2 | g'2 f'e' e'4 | %84
 d'2 z2 d'2 d'2 | d'2 z d' d'2 d'2 | d'2 z d'/d'/ d'd' z d'/d'/ | d'd' z d'/d'/ d'd' z d'/d'/ | %88
 d'd' z4 [dd']2 | [dd']6 [dd']2 | !fermata![dd']8 |] %91
V:2
 a3 a gf z2 | a3 a gf z a/a/ | ba z a/a/ ba z a | (gf e)e f2 z2 | a3 a aa z2 | a3 a aa z a/a/ | %6
 aa z a/a/ aa z a | a3 ^g a2 z2 | a4 B2 c2 | dd d3 d c2 | B4 A2 z a/a/ | aa z a/a/ aa z a/a/ | %12
 aa z a/a/ aa z2 | d4 e2 f2 | gG g3 g f2 | e4 d2 z a/a/ | ba z a/a/ ba z a/a/ | ba z a/a/ ba z2 | %18
 z8 | z4 z2 z a/a/ | ge/e/ aa aa/a/ fd | z e/d/ cA z g/f/ ea/g/ | f2 z b/a/ ^ge a2- | %23
 a2 ^g2 a2 z e/e/ | af z f/f/ ec z2 | d4 e2 f2 | gG g3 g f2 | e4 da/a/ fd | z bbb a4 | %29
 z4 z2!p! f2 | e2 d2 d2 c2 | d8 | z2 d4!<(! c2 | d6!<)! a2 | a2 d2 f2 e>d | =d3 e f2 ^g2 | %36
 a3 a g2 g2 | a4 z4 | z8 | z8 | z8 | z8 | z2 a2 d'2 f2 | b2 d2 g2 fe | (f2 e>d) dafd | %45
 z eae z2 z c | =db a4 ^g2 | a2 e2 a2 a2 | a8- | a8 | z2 a2 a2 a2 | a8- | a8- | a4 z4 | %54
 z2 z a ba z a | ba z a/a/ ba z a/a/ | ba z2 z4 | z2 z e a^g z e | a^g z e/e/ ag z e/e/ | %59
 a^g z2 z4 | z2 z f b^a z f | b^a z f/f/ ba z f/f/ | b2 f2 z z2 z | z4 b2 b2 | a3 a a2 a2 | a4 z4 | %66
 z4 z (f^ga) | d(c de/d/ cd)ag | (f3 e d3) d | dc dd (d2 c2) | =d4 d2 d2 | d2 z a ba z a | %72
 ba z d d2 d2 | d2 z a/a/ ba z a/a/ | ba z2 z2 a2 | d'2 f2 b2 d2 | g2 fe e4 | f2 z2 f2 f>g | %78
 a2 z f f2 f>g | a2 z2 f2 f2 | a2 z f f2 f>g | a2 z2 z2 f2 | f2 f2 d2 a2 | e2 aa a4 | %84
 a2 z a ba z a | ba z a ba z a | ba z a/a/ ba z a/a/ | ba z a/a/ ba z a/a/ | ba z2 z2 [ff']2 | %89
 [gg']6 [gg']2 | !fermata![ff']8 |] %91
V:3
 f3 d dd z2 | f3 d dd z d/d/ | gf z d/d/ gf z d | e A2 A A2 z2 | c3 e dc z2 | c3 e dc z e/e/ | %6
 dc z e/e/ dc z e | (de f)d e2 z2 | A4 B2 c2 | dD d3 d c2 | B4 A2 z A/A/ | fe z e/e/ fe z e/e/ | %12
 dc z e/e/ dc z2 | d4 e2 f2 | gG G3 G F2 | E4 D2 z d/d/ | gf z d/d/ gf z d/d/ | gf z d/d/ gf z2 | %18
 z2 z d/d/ cA z d/d/ | BB z e/e/ cA/A/ d2 | =d2 c2 df/f/ af | A4 B2 c2 | dD d3 d c2 | B4 Ae/e/ cA | %24
 z d/d/ fd z e/e/ cA | d4 e2 f2 | gG g3 g f2 | e4 d3 f | g3 g f4 | z4 z2!p! d2 | A2 G2 A3 A | A8 | %32
 z4 A2!<(! G>F | F6!<)! d2 | e2 g2 A3 A | A3 G A2 d2 | e3 d d2 e2 | f4 z4 | z8 | z4 z2 d2 | %40
 a2 c2 f2 A2 | d2 cB (c2 B>A) | A2 z2 z Add | d2 z Be cdd | (d2 c2) d2 z2 | z4 z dcA | %46
 (f e2) f ee z e | e2 c2 z4 | z2 z e fe z e | fe z e/e/ fe z e/e/ | fe z2 z4 | z2 z e fe z e | %52
 fe z e/e/ fe z e/e/ | fe z2 z4 | z2 z d gf z d | gf z d/d/ gf z d/d/ | gf z2 z4 | z2 z B cB z B | %58
 cB z B/B/ cB z B/B/ | cB z2 z4 | z2 z c dc z c | dc z c/c/ dc z c/c/ | d2 d2 z4 | z4 d2 d2 | %64
 e3 e dc de | c4 z4 | z ABc FA A2- | A2 ^G2 A2 z2 | z Adc B3 A | G2 AB A4 | A4 d2 d2 | d8- | %72
 d3 d d2 d2 | d8- | d2 z f f2 d2 | d2 d2 B2 AA | G2 AA A4 | A2 z2 d2 d>e | f2 z d d2 d>e | %79
 f2 z2 d2 d2 | f2 z d d2 d>e | f2 z2 z2 d2 | d2 A2 B2 A2 | c2 dd (d2 c2) | f2 z d gf z d | %85
 gf z d gf z d | gf z d/d/ gf z d/d/ | gf z d/d/ gf z d/d/ | gf z2 z2 [Aa]2 | [Bb]6 [Bb]2 | %90
 !fermata![Aa]8 |] %91
V:4
 D3 F GD z2 | D3 F GD z F/F/ | GD z F/F/ GD z F | (ED A)A D2 z2 | A3 c dA z2 | A3 c dA z c/c/ | %6
 dA z c/c/ dA z c | dc B2 A2 z2 | A4 B2 c2 | dD d3 d c2 | B4 A2 z c/c/ | dA z c/c/ dA z c/c/ | %12
 dA z c/c/ dA z2 | D4 E2 F2 | GG G3 G F2 | E4 D2 z F/F/ | GD z F/F/ GD z F/F/ | GD z F/F/ GD z2 | %18
 z8 | z8 | z2 z A/A/ FD z2 | A4 B2 c2 | dD d3 d c2 | B4 A2 z A/A/ | FD z d/d/ cA z2 | %25
 z2 z d/d/ cA z d/d/ | BG z E/E/ AA z B/B/ | GE/E/ A>G F2 z d/d/ | BG/G/ Bc d4!p! | z4 z2!p! D2 | %30
 C2 B2 A2 G>F | F8 | z4 A3!<(! A | D6!<)! d2 | c2 B2 A2 G>F | F3 E D2 B2 | A3 F G2 E2 | %37
 D3 A d2 F2 | B2 D2 G2 FE | PE4 D2 z2 | z2 z A dD z F | B^G A2 z EDE | CAGA F2 z F | GD z2 z2 z G | %44
 AD z A FD z d | cA z c dD z F | B^G AD EE z E | C2 A2 z4 | z2 z c dA z c | dA z c/c/ dA z c/c/ | %50
 dA z2 z4 | z2 z c dA z c | dA z c/c/ dA z c/c/ | dA z2 z4 | z2 z F GD z F | GD z F/F/ GD z F/F/ | %56
 GD z2 z4 | z2 z ^G AE z G | AE z ^G/G/ AE z G/G/ | AE z2 z4 | z2 z ^A BF z A | %61
 BF z ^A/A/ BF z A/A/ | B2 [B,B]2 z4 | z4 B2 B2 | c3!f! c d2 D2 | A3!f! A A2 C2 | F2 A2 d2 cc | %67
 B4 A2 z2 | z4 z DGF | E2 FG A2 GA | F2 D2 d2 d2 | d2 z F GD z F | GD z d d2 d2 | %73
 d2 z F/F/ GD z F/F/ | GD z D d2 F2 | B2 D2 G2 FF | E2 DD A4 | D2 z2 D2 D2 | d2 z D D2 D2 | %79
 d2 z2 D2 D2 | d2 z D D2 D2 | d2 z D d2 F2 | B2 D2 G2 FF | E2 DD A4 | D2 z F GD z F | %85
 GD z F GD z F | GD z F/F/ GD z F/F/ | GD z F/F/ GD z F/F/ | GD z2 z2 D2 | G6 G2 | %90
 !fermata![Dd]8 |] %91

